P2
32 32
254
0 0 0 0 0 0 0 0  0 0 0 0 0 0 0 0  0 0 0 0 0 0 0  0 0 0 0 0 0 0 0 0
0 0 0 0 0 0 0 0  0 0 0 0 0 0 0 0  0 0 0 0 0 0 0  0 0 0 0 0 0 0 0 0

0 0 254 254 254 254 254 254  254 254 254 254 254 254 254 254  254 254 254 254 254 254 254  254 254 254 254 254 254 254 0 0
0 0 254 254 254 254 254 254  254 254 254 254 254 254 254 254  254 254 254 254 254 254 254  254 254 254 254 254 254 254 0 0
0 0 254 254 254 254 254 254  254 254 254 254 254 254 254 254  254 254 254 254 254 254 254  254 254 254 254 254 254 254 0 0
0 0 254 254 254 254 254 254  254 254 254 254 254 254 254 254  254 254 254 254 254 254 254  254 254 254 254 254 254 254 0 0
0 0 254 254 254 254 254 254  254 254 254 254 254 254 254 254  254 254 254 254 254 254 254  254 254 254 254 254 254 254 0 0
0 0 254 254 254 254 254 254  254 254 254 254 254 254 254 254  254 254 254 254 254 254 254  254 254 254 254 254 254 254 0 0
0 0 254 254 254 254 254 254  254 254 254 254 254 254 254 254  254 254 254 254 254 254 254  254 254 254 254 254 254 254 0 0
0 0 254 254 254 254 254 254  254 254 254 254 254 254 254 254  254 254 254 254 254 254 254  254 254 254 254 254 254 254 0 0

0 0 254 254 254 254 254 254  254 254 254 254 254 254 254 254  254 254 254 0 0 0 0 0  254 254 254 254 254 254 0 0
0 0 254 254 254 254 254 254  254 254 254 254 254 254 254 254  254 254 254 0 0 0 0 0  254 254 254 254 254 254 0 0
0 0 254 254 254 254 254 254  254 254 254 254 254 254 254 254  254 254 254 0 0 0 0 0  254 254 254 254 254 254 0 0
0 0 254 254 254 254 254 254  254 254 254 254 254 254 254 254  254 254 254 0 0 0 0 0  254 254 254 254 254 254 0 0
0 0 254 254 254 254 254 254  254 254 254 254 254 254 254 254  254 254 254 0 0 0 0 0  254 254 254 254 254 254 0 0

0 0 254 254 254 254 254 254  254 254 254 254 254 254 254 254  254 254 254 254 254 254 254  254 254 254 254 254 254 254 0 0
0 0 254 254 254 254 254 254  254 254 254 254 254 254 254 254  254 254 254 254 254 254 254  254 254 254 254 254 254 254 0 0

0 0 254 254 254 254 254 254  254 0 0 0 0 0 254 254  254 254 254 254 254 254 254  254 254 254 254 254 254 254 0 0
0 0 254 254 254 254 254 254  254 0 0 0 0 0 254 254  254 254 254 254 254 254 254  254 254 254 254 254 254 254 0 0
0 0 254 254 254 254 254 254  254 0 0 0 0 0 254 254  254 254 254 254 254 254 254  254 254 254 254 254 254 254 0 0
0 0 254 254 254 254 254 254  254 0 0 0 0 0 254 254  254 254 254 254 254 254 254  254 254 254 254 254 254 254 0 0
0 0 254 254 254 254 254 254  254 0 0 0 0 0 254 254  254 254 254 254 254 254 254  254 254 254 254 254 254 254 0 0

0 0 254 254 254 254 254 254  254 254 254 254 254 254 254 254  254 254 254 254 254 254 254  254 254 254 254 254 254 254 0 0
0 0 254 254 254 254 254 254  254 254 254 254 254 254 254 254  254 254 254 254 254 254 254  254 254 254 254 254 254 254 0 0
0 0 254 254 254 254 254 254  254 254 254 254 254 254 254 254  254 254 254 254 254 254 254  254 254 254 254 254 254 254 0 0
0 0 254 254 254 254 254 254  254 254 254 254 254 254 254 254  254 254 254 254 254 254 254  254 254 254 254 254 254 254 0 0
0 0 254 254 254 254 254 254  254 254 254 254 254 254 254 254  254 254 254 254 254 254 254  254 254 254 254 254 254 254 0 0
0 0 254 254 254 254 254 254  254 254 254 254 254 254 254 254  254 254 254 254 254 254 254  254 254 254 254 254 254 254 0 0
0 0 254 254 254 254 254 254  254 254 254 254 254 254 254 254  254 254 254 254 254 254 254  254 254 254 254 254 254 254 0 0
0 0 254 254 254 254 254 254  254 254 254 254 254 254 254 254  254 254 254 254 254 254 254  254 254 254 254 254 254 254 0 0

0 0 0 0 0 0 0 0  0 0 0 0 0 0 0 0  0 0 0 0 0 0 0  0 0 0 0 0 0 0 0 0
0 0 0 0 0 0 0 0  0 0 0 0 0 0 0 0  0 0 0 0 0 0 0  0 0 0 0 0 0 0 0 0
